foodtherapy/img/header/logo-drop-down.svg

<svg width="218" height="62" viewBox="0 0 218 62" fill="none" xmlns="http://www.w3.org/2000/svg">
<path d="M28.7013 29.0894C28.7013 29.0894 27.4973 21.0068 36.8 21.0068C46.1028 21.0068 44.8988 30.4364 44.8988 30.4364C44.8988 30.4364 45.0081 34.5585 36.8 42.5602C29.8648 49.3212 28.7013 49.2539 28.7013 49.2539" stroke="#9BA2AC" stroke-width="2.38999" stroke-linecap="round" stroke-linejoin="round"/>
<path d="M28.6647 29.1015C28.6647 29.1015 29.8633 21.0068 20.6024 21.0068C11.3416 21.0068 12.5388 30.4486 12.5388 30.4486C12.5388 30.4486 12.4308 34.576 20.6024 42.5885C27.5066 49.3576 28.6647 49.2903 28.6647 49.2903" stroke="#9BA2AC" stroke-width="2.38999" stroke-linecap="round" stroke-linejoin="round"/>
<path d="M28.7012 29.089C28.7012 29.089 27.3514 25.0478 30.051 23.7007" stroke="#008B77" stroke-width="2.38999" stroke-linecap="round" stroke-linejoin="round"/>
<path fill-rule="evenodd" clip-rule="evenodd" d="M27.3515 23.7009C37.5316 25.9182 35.4503 11.5771 35.4503 11.5771C35.4503 11.5771 22.3411 17.3198 27.3515 23.7009Z" stroke="#008B77" stroke-width="2.38999" stroke-linecap="round" stroke-linejoin="round"/>
<path d="M28.7014 21.0065C28.7014 21.0065 27.8402 20.5189 32.7507 15.6182" stroke="#008B77" stroke-width="1.195" stroke-linecap="round" stroke-linejoin="round"/>
<path fill-rule="evenodd" clip-rule="evenodd" d="M58.8231 42.1813V29.0823H62.6241V27.393H58.8231V26.741C58.8053 26.068 58.9214 25.3982 59.1646 24.7702C59.3347 24.2981 59.6522 23.893 60.0703 23.6144C60.3983 23.4089 60.753 23.2493 61.1245 23.1403C61.4584 23.0498 61.803 23.0045 62.149 23.0056C62.388 22.9982 62.6272 23.0181 62.8617 23.0648V21.2867C62.5585 21.2268 62.2502 21.1971 61.9411 21.1978C61.4253 21.1979 60.9115 21.2626 60.4118 21.3904C59.8324 21.5508 59.2778 21.7902 58.7637 22.1017C58.1183 22.5069 57.6149 23.1024 57.3235 23.8057C56.9318 24.7227 56.7444 25.7137 56.7741 26.71V27.3917H54.9033V29.0809H56.7768V42.18H58.8258L58.8231 42.1813ZM65.0591 40.2698C66.1652 41.3773 67.5765 42.1311 69.1134 42.4353C70.6502 42.7395 72.243 42.5803 73.6888 41.978C75.1347 41.3757 76.3682 40.3576 77.2323 39.0532C78.0964 37.7489 78.5519 36.2174 78.5408 34.6538C78.565 33.6261 78.3733 32.6047 77.9781 31.6553C77.5829 30.706 76.9929 29.8497 76.2462 29.1415C74.7362 27.7144 72.7356 26.9191 70.656 26.9191C68.5764 26.9191 66.5759 27.7144 65.0659 29.1415C64.3214 29.851 63.7335 30.7077 63.3398 31.6569C62.9461 32.6061 62.7552 33.6268 62.7794 34.6538C62.7529 35.6959 62.9416 36.7323 63.3339 37.6985C63.7261 38.6647 64.3134 39.5399 65.0591 40.2698V40.2698ZM66.5291 30.4361C67.07 29.896 67.7124 29.4675 68.4193 29.1751C69.1263 28.8828 69.8841 28.7324 70.6493 28.7324C71.4145 28.7324 72.1723 28.8828 72.8792 29.1751C73.5862 29.4675 74.2285 29.896 74.7695 30.4361C75.324 30.9886 75.76 31.6479 76.051 32.3739C76.342 33.1 76.4819 33.8775 76.4622 34.6592C76.4865 35.457 76.3491 36.2515 76.0582 36.995C75.7674 37.7385 75.329 38.4157 74.7695 38.986C74.231 39.5306 73.5895 39.9629 72.8822 40.258C72.1749 40.5531 71.4159 40.705 70.6493 40.705C69.8827 40.705 69.1237 40.5531 68.4164 40.258C67.7091 39.9629 67.0676 39.5306 66.5291 38.986C65.9732 38.4138 65.5382 37.7359 65.2499 36.9926C64.9617 36.2493 64.8262 35.4558 64.8513 34.6592C64.8314 33.8788 64.9697 33.1024 65.258 32.3766C65.5463 31.6509 65.9787 30.9908 66.5291 30.4361V30.4361ZM82.1043 40.2698C83.2103 41.3773 84.6217 42.1311 86.1585 42.4353C87.6953 42.7395 89.2881 42.5803 90.734 41.978C92.1798 41.3757 93.4133 40.3576 94.2774 39.0532C95.1415 37.7489 95.597 36.2174 95.5859 34.6538C95.6092 33.6256 95.4165 32.6039 95.0201 31.6545C94.6237 30.7051 94.0325 29.8491 93.2845 29.1415C91.7746 27.7144 89.774 26.9191 87.6944 26.9191C85.6148 26.9191 83.6142 27.7144 82.1043 29.1415C81.3598 29.851 80.7719 30.7077 80.3782 31.6569C79.9844 32.6061 79.7935 33.6268 79.8177 34.6538C79.7921 35.6964 79.9819 36.7331 80.3753 37.6993C80.7687 38.6655 81.3572 39.5405 82.1043 40.2698V40.2698ZM83.5742 30.4361C84.6665 29.3473 86.1472 28.7357 87.691 28.7357C89.2349 28.7357 90.7156 29.3473 91.8079 30.4361C92.3623 30.9886 92.7984 31.6479 93.0894 32.3739C93.3804 33.1 93.5202 33.8775 93.5005 34.6592C93.5248 35.457 93.3874 36.2515 93.0966 36.995C92.8057 37.7385 92.3674 38.4157 91.8079 38.986C91.2695 39.5295 90.6284 39.961 89.9217 40.2555C89.215 40.55 88.4568 40.7016 87.691 40.7016C86.9252 40.7016 86.167 40.55 85.4604 40.2555C84.7537 39.961 84.1126 39.5295 83.5742 38.986C83.0183 38.4138 82.5833 37.7359 82.2951 36.9926C82.0069 36.2493 81.8713 35.4558 81.8964 34.6592C81.8765 33.8788 82.0148 33.1024 82.3031 32.3766C82.5915 31.6509 83.0238 30.9908 83.5742 30.4361V30.4361ZM103.424 42.5423C104.498 42.5727 105.558 42.2958 106.479 41.7444C107.4 41.193 108.144 40.3902 108.622 39.4306H108.68L108.592 40.4975V42.1867H110.551V21.3473H108.526V28.7266C108.523 29.104 108.553 29.4808 108.617 29.8528H108.556C108.112 28.9567 107.416 28.2097 106.552 27.7042C105.677 27.182 104.675 26.9103 103.656 26.9188C102.735 26.8897 101.819 27.0677 100.977 27.4396C100.134 27.8115 99.3858 28.3679 98.7877 29.0674C97.487 30.6543 96.8206 32.6652 96.9168 34.7131C96.8222 36.7475 97.4476 38.7503 98.6837 40.3708C99.2491 41.075 99.9719 41.6373 100.794 42.0127C101.616 42.3882 102.515 42.5663 103.419 42.5329V42.5329L103.424 42.5423ZM100.397 30.362C100.814 29.8548 101.34 29.4476 101.936 29.1706C102.532 28.8936 103.182 28.7538 103.84 28.7617C104.523 28.733 105.202 28.8788 105.812 29.1852C106.423 29.4917 106.945 29.9487 107.329 30.5129C108.169 31.741 108.601 33.2022 108.561 34.6888C108.687 36.3195 108.194 37.9377 107.181 39.2231C106.754 39.7085 106.226 40.0952 105.633 40.3562C105.041 40.6173 104.399 40.7464 103.752 40.7346C103.091 40.7499 102.435 40.6089 101.839 40.323C101.242 40.0372 100.722 39.6146 100.321 39.0898C99.388 37.8287 98.921 36.2841 98.9995 34.7185C98.9108 33.1424 99.4083 31.5891 100.397 30.3566V30.362ZM114.753 39.2083C114.949 39.7948 115.273 40.3304 115.702 40.7764C116.13 41.2223 116.653 41.5674 117.232 41.7866C117.713 41.9925 118.217 42.1417 118.732 42.2312C119.179 42.3004 119.63 42.3351 120.082 42.3349C120.42 42.3236 120.757 42.2939 121.092 42.246V39.6919C120.866 39.7339 120.638 39.7537 120.409 39.7512C120.155 39.7513 119.902 39.7315 119.651 39.6919C119.364 39.6388 119.084 39.5482 118.82 39.4225C118.519 39.2882 118.246 39.097 118.018 38.8594C117.76 38.5709 117.563 38.2332 117.439 37.8666C117.272 37.3857 117.191 36.879 117.201 36.37V29.675H120.824V27.3378H117.201V23.0662H114.38V27.3378H112.356V29.679H114.316V36.7027C114.302 37.5562 114.45 38.4047 114.753 39.2029V39.2083ZM125.458 42.1867V35.0741C125.405 33.6034 125.914 32.1677 126.883 31.0584C127.329 30.547 127.882 30.1397 128.503 29.8657C129.124 29.5916 129.798 29.4575 130.477 29.4729C130.904 29.4187 131.338 29.4809 131.733 29.6531C132.128 29.8253 132.468 30.101 132.719 30.4509C133.152 31.3131 133.352 32.2736 133.298 33.2367V42.1867H136.178V32.5793C136.178 28.7464 134.466 26.8299 131.041 26.8299C129.779 26.7983 128.54 27.1723 127.507 27.8968C126.615 28.4968 125.89 29.3125 125.399 30.2677H125.346L125.465 29.023V21.2584H122.584V42.1813H125.465L125.458 42.1867ZM140.261 40.3008C141.015 41.0452 141.914 41.6276 142.902 42.0124C143.891 42.3972 144.947 42.5762 146.007 42.5383C147.087 42.5329 148.158 42.3377 149.17 41.9618C150.15 41.6228 151.053 41.0936 151.828 40.4045L150.613 38.3004C149.415 39.4246 147.833 40.0509 146.188 40.0516C144.87 40.0842 143.59 39.6124 142.61 38.7328C142.109 38.2629 141.71 37.6958 141.437 37.0665C141.164 36.4371 141.022 35.7586 141.021 35.0728H151.954C152.02 34.6716 152.06 34.2666 152.073 33.8604C152.138 32.0314 151.525 30.2428 150.351 28.8371C149.756 28.1662 149.017 27.6379 148.189 27.2916C147.362 26.9452 146.466 26.7897 145.57 26.8367C144.569 26.807 143.573 26.9838 142.644 27.3561C141.715 27.7283 140.873 28.288 140.171 29.0001C139.449 29.7559 138.887 30.6496 138.52 31.6273C138.152 32.6051 137.987 33.6469 138.033 34.6902C138.002 35.7273 138.184 36.7598 138.567 37.7244C138.95 38.6889 139.527 39.5652 140.261 40.2994V40.3008ZM142.607 30.1061C143.406 29.4056 144.439 29.0301 145.502 29.054C145.978 29.0412 146.452 29.1267 146.893 29.3052C147.335 29.4837 147.734 29.7513 148.067 30.0912C148.789 30.8842 149.176 31.9247 149.147 32.9956H141.099C141.24 31.883 141.774 30.8574 142.607 30.1047V30.1061ZM156.931 42.1813V35.9591C156.895 34.448 157.303 32.9593 158.104 31.6768C158.46 31.0947 158.966 30.6186 159.57 30.2981C160.173 29.9775 160.851 29.8242 161.534 29.8541C161.812 29.8449 162.091 29.8648 162.365 29.9134V27.0684C162.109 27.0337 161.852 27.0139 161.593 27.0091C160.506 27.0007 159.456 27.403 158.653 28.1353C157.793 28.8997 157.156 29.883 156.812 30.9803H156.753L156.842 29.8838V27.1896H154.051V42.1813H156.931ZM163.791 41.3219C164.786 42.1329 166.04 42.5628 167.324 42.5343C168.363 42.5428 169.381 42.2438 170.249 41.6748C171.101 41.134 171.792 40.3771 172.254 39.4818H172.319L172.23 40.6672V42.1786H174.929V32.6951C174.983 31.9023 174.873 31.1069 174.608 30.3578C174.342 29.6087 173.926 28.9216 173.385 28.3387C172.79 27.8083 172.094 27.4016 171.34 27.1421C170.585 26.8826 169.786 26.7756 168.99 26.8272C167.931 26.8321 166.879 27.0021 165.872 27.3311C164.966 27.5923 164.12 28.0249 163.378 28.6054L164.536 30.7095C165.752 29.7924 167.228 29.284 168.753 29.2574C169.2 29.1937 169.657 29.2349 170.086 29.3777C170.515 29.5205 170.905 29.761 171.224 30.0801C171.544 30.3993 171.785 30.7883 171.928 31.2165C172.071 31.6446 172.113 32.1001 172.049 32.547V32.8433H171.277C170.353 32.8403 169.43 32.8997 168.515 33.0211C167.553 33.161 166.604 33.3841 165.68 33.688C164.722 33.9736 163.869 34.5361 163.231 35.3045C162.603 36.0951 162.277 37.0822 162.31 38.0902C162.288 38.7071 162.411 39.3205 162.669 39.8815C162.927 40.4426 163.312 40.9358 163.795 41.3219H163.791ZM171.304 34.9205H172.046V35.4836C172.051 36.6755 171.653 37.8342 170.918 38.7732C170.59 39.2379 170.154 39.6158 169.647 39.8741C169.139 40.1323 168.577 40.2631 168.007 40.255C167.248 40.3018 166.5 40.046 165.929 39.5437C165.693 39.33 165.505 39.0691 165.377 38.7781C165.249 38.487 165.184 38.1723 165.186 37.8545C165.186 35.8985 167.225 34.9205 171.304 34.9205V34.9205ZM180.598 48.1085V41.2923C180.605 40.8546 180.565 40.4175 180.48 39.9883H180.539C181.019 40.7877 181.705 41.4452 182.524 41.8931C183.343 42.3409 184.267 42.5632 185.201 42.537C186.126 42.5642 187.046 42.3855 187.894 42.0139C188.741 41.6423 189.495 41.087 190.101 40.3884C191.425 38.79 192.103 36.7551 192.001 34.6834C192.1 32.6363 191.468 30.6205 190.22 28.9934C189.641 28.2849 188.905 27.7207 188.07 27.3452C187.235 26.9697 186.324 26.7933 185.409 26.8299C184.362 26.8148 183.329 27.07 182.41 27.5708C181.537 28.0462 180.824 28.7678 180.361 29.6453H180.301L180.39 28.5192V27.1856H177.718V48.1085H180.598ZM181.767 30.7055C182.152 30.268 182.627 29.9194 183.161 29.684C183.694 29.4486 184.272 29.332 184.855 29.3423C185.448 29.3269 186.035 29.4518 186.569 29.7068C187.103 29.9618 187.569 30.3396 187.929 30.8092C188.758 31.9349 189.172 33.3113 189.102 34.7063C189.179 36.1141 188.735 37.501 187.855 38.6035C187.481 39.0593 187.01 39.4252 186.475 39.674C185.94 39.9229 185.356 40.0483 184.766 40.0408C184.157 40.0584 183.553 39.9224 183.011 39.6452C182.468 39.3681 182.004 38.9588 181.662 38.4553C180.891 37.3702 180.49 36.0661 180.519 34.736C180.412 33.2836 180.858 31.8446 181.767 30.7055V30.7055ZM191.891 47.4794L192.247 47.6869C192.582 47.8889 192.941 48.0482 193.316 48.161C193.785 48.3182 194.276 48.3983 194.771 48.3981C195.817 48.4111 196.84 48.0948 197.696 47.4942C198.597 46.8384 199.276 45.9232 199.641 44.8715L206.709 27.1788H203.591L199.938 37.0126C199.74 37.5964 199.571 38.1898 199.433 38.7907H199.374L198.81 36.9829L195.038 27.1734H191.799L198.094 41.9914L197.352 43.7103C197.193 44.3226 196.842 44.8684 196.351 45.2681C195.859 45.6679 195.253 45.9008 194.62 45.933C193.988 45.9191 193.38 45.6889 192.898 45.281L191.891 47.4794Z" fill="#9BA2AC"/>
</svg>

<svg width="218" height="62" fill="none" xmlns="http://www.w3.org/2000/svg"><path d="M28.701 29.09s-1.204-8.083 8.099-8.083 8.099 9.43 8.099 9.43.11 4.122-8.099 12.123c-6.935 6.761-8.099 6.694-8.099 6.694" stroke="#9BA2AC" stroke-width="2.39" stroke-linecap="round" stroke-linejoin="round"/><path d="M28.665 29.102s1.198-8.095-8.063-8.095c-9.26 0-8.063 9.442-8.063 9.442s-.108 4.127 8.063 12.14c6.905 6.769 8.063 6.701 8.063 6.701" stroke="#9BA2AC" stroke-width="2.39" stroke-linecap="round" stroke-linejoin="round"/><path d="M28.701 29.089s-1.35-4.041 1.35-5.388" stroke="#008B77" stroke-width="2.39" stroke-linecap="round" stroke-linejoin="round"/><path clip-rule="evenodd" d="M27.352 23.7c10.18 2.218 8.098-12.123 8.098-12.123s-13.109 5.743-8.099 12.124z" stroke="#008B77" stroke-width="2.39" stroke-linecap="round" stroke-linejoin="round"/><path d="M28.701 21.006s-.86-.487 4.05-5.388" stroke="#008B77" stroke-width="1.195" stroke-linecap="round" stroke-linejoin="round"/><path fill-rule="evenodd" clip-rule="evenodd" d="M58.823 42.181V29.082h3.801v-1.689h-3.8v-.652a5.085 5.085 0 01.34-1.97c.17-.473.488-.878.906-1.157a4.227 4.227 0 011.054-.474 3.87 3.87 0 011.025-.134 3.15 3.15 0 01.713.059v-1.778a4.694 4.694 0 00-.92-.09 6.21 6.21 0 00-1.53.193c-.58.16-1.134.4-1.648.712-.646.405-1.15 1-1.44 1.704a6.872 6.872 0 00-.55 2.904v.682h-1.87v1.689h1.873V42.18h2.049l-.003.001zm6.236-1.911a7.897 7.897 0 008.63 1.708 7.888 7.888 0 003.543-2.925 7.864 7.864 0 001.309-4.4 7.352 7.352 0 00-2.295-5.511 8.139 8.139 0 00-11.18 0 7.381 7.381 0 00-2.287 5.512 7.58 7.58 0 002.28 5.616zm1.47-9.834a5.828 5.828 0 016.35-1.26c.707.292 1.35.72 1.89 1.26a5.762 5.762 0 011.693 4.223 5.916 5.916 0 01-1.693 4.327 5.788 5.788 0 01-4.12 1.719 5.8 5.8 0 01-4.12-1.719 5.947 5.947 0 01-1.678-4.327 5.784 5.784 0 011.678-4.223zm15.575 9.834a7.896 7.896 0 008.63 1.708 7.889 7.889 0 003.543-2.925 7.864 7.864 0 001.309-4.4 7.352 7.352 0 00-2.302-5.511 8.138 8.138 0 00-11.18 0 7.381 7.381 0 00-2.286 5.512 7.582 7.582 0 002.286 5.616zm1.47-9.834a5.832 5.832 0 018.234 0A5.763 5.763 0 0193.5 34.66a5.918 5.918 0 01-1.692 4.327 5.79 5.79 0 01-4.117 1.716 5.798 5.798 0 01-4.117-1.716 5.945 5.945 0 01-1.678-4.327 5.784 5.784 0 011.678-4.223zm19.85 12.106a5.637 5.637 0 003.055-.798 5.617 5.617 0 002.143-2.313h.058l-.088 1.067v1.689h1.959v-20.84h-2.025v7.38c-.003.377.027.754.091 1.126h-.061a5.124 5.124 0 00-2.004-2.149 5.561 5.561 0 00-2.896-.785 6.151 6.151 0 00-4.868 2.148 8.292 8.292 0 00-1.871 5.646 8.664 8.664 0 001.767 5.658 5.791 5.791 0 004.735 2.162l.005.01zm-3.027-12.18a4.385 4.385 0 013.443-1.6 4.018 4.018 0 013.489 1.75 7.061 7.061 0 011.232 4.177 6.515 6.515 0 01-1.38 4.534 4.46 4.46 0 01-3.429 1.511 4.2 4.2 0 01-3.431-1.644 6.779 6.779 0 01-1.322-4.372 6.396 6.396 0 011.398-4.361v.005zm14.356 8.846a4.167 4.167 0 002.479 2.579c.481.206.985.355 1.5.444.447.07.898.104 1.35.104a9.338 9.338 0 001.01-.089v-2.554a3.522 3.522 0 01-.683.06c-.254 0-.507-.02-.758-.06a3.355 3.355 0 01-.831-.27 2.554 2.554 0 01-.802-.563 2.868 2.868 0 01-.579-.992 4.305 4.305 0 01-.238-1.497v-6.695h3.623v-2.337h-3.623v-4.272h-2.821v4.272h-2.024v2.341h1.96v7.024a6.733 6.733 0 00.437 2.5v.005zm10.705 2.979v-7.113a5.786 5.786 0 011.425-4.016 4.63 4.63 0 013.594-1.585 2.39 2.39 0 012.242.978 5.52 5.52 0 01.579 2.786v8.95h2.88v-9.608c0-3.833-1.712-5.75-5.137-5.75a5.898 5.898 0 00-3.534 1.068 6.363 6.363 0 00-2.108 2.37h-.053l.119-1.244v-7.765h-2.881v20.923h2.881l-.007.006zm14.803-1.886a7.776 7.776 0 005.746 2.237 9.218 9.218 0 003.163-.576 7.873 7.873 0 002.658-1.558l-1.215-2.104a6.47 6.47 0 01-4.425 1.752 5.165 5.165 0 01-3.578-1.32 5.028 5.028 0 01-1.589-3.66h10.933c.066-.4.106-.805.119-1.212a7.425 7.425 0 00-1.722-5.023 5.967 5.967 0 00-4.781-2A7.285 7.285 0 00140.171 29a7.744 7.744 0 00-2.138 5.69 7.606 7.606 0 002.228 5.61zm2.346-10.195a4.247 4.247 0 012.895-1.052 3.461 3.461 0 012.565 1.037 4.147 4.147 0 011.08 2.905h-8.048a4.69 4.69 0 011.508-2.891v.001zm14.324 12.075V35.96c-.036-1.511.372-3 1.173-4.282a3.827 3.827 0 013.43-1.823c.278-.01.557.01.831.06v-2.846a6.657 6.657 0 00-.772-.059 4.314 4.314 0 00-2.94 1.126 6.349 6.349 0 00-1.841 2.845h-.059l.089-1.096V27.19h-2.791v14.99h2.88zm6.86-.86a5.405 5.405 0 003.533 1.213 5.257 5.257 0 002.925-.86 5.683 5.683 0 002.005-2.192h.065l-.089 1.185v1.512h2.699v-9.484a5.823 5.823 0 00-1.544-4.356 6.016 6.016 0 00-4.395-1.512 10.192 10.192 0 00-3.118.504 7.351 7.351 0 00-2.494 1.274l1.158 2.104a7.211 7.211 0 014.217-1.452 2.92 2.92 0 012.471.823 2.905 2.905 0 01.825 2.467v.296h-.772a20.496 20.496 0 00-2.762.178c-.962.14-1.911.363-2.835.667a5.064 5.064 0 00-2.449 1.616 4.254 4.254 0 00-.921 2.786 3.95 3.95 0 001.485 3.232h-.004zm7.513-6.4h.742v.563a5.302 5.302 0 01-1.128 3.29 3.5 3.5 0 01-2.911 1.481 2.88 2.88 0 01-2.078-.711 2.26 2.26 0 01-.743-1.69c0-1.956 2.039-2.934 6.118-2.934zm9.294 13.188v-6.817a6.202 6.202 0 00-.118-1.304h.059a5.258 5.258 0 004.662 2.549 6.253 6.253 0 004.9-2.149 8.303 8.303 0 001.9-5.705 8.663 8.663 0 00-1.781-5.69 5.903 5.903 0 00-4.811-2.163 6.084 6.084 0 00-2.999.74 5.043 5.043 0 00-2.049 2.075h-.06l.089-1.126v-1.333h-2.672v20.922h2.88zm1.169-17.404a4.012 4.012 0 013.088-1.363 3.75 3.75 0 013.074 1.467 6.06 6.06 0 011.173 3.897 5.744 5.744 0 01-1.247 3.897 3.926 3.926 0 01-3.089 1.438 3.625 3.625 0 01-3.104-1.586 6.189 6.189 0 01-1.143-3.719 5.78 5.78 0 011.248-4.03zm10.124 16.774l.356.208a4.69 4.69 0 001.069.474c.469.157.96.237 1.455.237a4.984 4.984 0 002.925-.904 5.458 5.458 0 001.945-2.623l7.068-17.692h-3.118l-3.653 9.834a18.266 18.266 0 00-.505 1.778h-.059l-.564-1.808-3.772-9.81h-3.239l6.295 14.818-.742 1.72a2.973 2.973 0 01-2.732 2.222 2.76 2.76 0 01-1.722-.652l-1.007 2.198z" fill="#9BA2AC"/></svg>
